logos/kording-lab.svg

<?xml version="1.0" encoding="UTF-8"?>
<!DOCTYPE svg PUBLIC "-//W3C//DTD SVG 1.1//EN" "http://www.w3.org/Graphics/SVG/1.1/DTD/svg11.dtd">
<svg xmlns="http://www.w3.org/2000/svg" version="1.1" width="200px" height="200px" style="shape-rendering:geometricPrecision; text-rendering:geometricPrecision; image-rendering:optimizeQuality; fill-rule:evenodd; clip-rule:evenodd" xmlns:xlink="http://www.w3.org/1999/xlink">
<g><path style="opacity:1" fill="#f3f7fa" d="M -0.5,-0.5 C 2.16667,-0.5 4.83333,-0.5 7.5,-0.5C 4.21573,1.11698 1.54906,3.45031 -0.5,6.5C -0.5,4.16667 -0.5,1.83333 -0.5,-0.5 Z"/></g>
<g><path style="opacity:1" fill="#2f7fb7" d="M 7.5,-0.5 C 69.1667,-0.5 130.833,-0.5 192.5,-0.5C 195.06,1.27333 197.393,3.27333 199.5,5.5C 199.5,68.1667 199.5,130.833 199.5,193.5C 197.552,196.472 194.886,198.472 191.5,199.5C 166.5,199.5 141.5,199.5 116.5,199.5C 116.5,180.167 116.5,160.833 116.5,141.5C 134.17,141.667 151.836,141.5 169.5,141C 177.042,137.061 179.542,130.895 177,122.5C 174.622,118.644 171.289,115.977 167,114.5C 166.501,108.843 166.334,103.176 166.5,97.5C 173.175,97.6663 179.842,97.4996 186.5,97C 190.085,95.0842 192.585,92.2509 194,88.5C 194.667,71.5 194.667,54.5 194,37.5C 191.504,32.163 187.338,29.4964 181.5,29.5C 179.535,27.5121 177.202,26.0121 174.5,25C 128.5,24.3333 82.5,24.3333 36.5,25C 33,26.5 30.5,29 29,32.5C 28.5,88.1657 28.3333,143.832 28.5,199.5C 21.1667,199.5 13.8333,199.5 6.5,199.5C 3.83333,197.5 1.5,195.167 -0.5,192.5C -0.5,130.5 -0.5,68.5 -0.5,6.5C 1.54906,3.45031 4.21573,1.11698 7.5,-0.5 Z"/></g>
<g><path style="opacity:1" fill="#f2f7fa" d="M 192.5,-0.5 C 194.833,-0.5 197.167,-0.5 199.5,-0.5C 199.5,1.5 199.5,3.5 199.5,5.5C 197.393,3.27333 195.06,1.27333 192.5,-0.5 Z"/></g>
<g><path style="opacity:1" fill="#2ed771" d="M 181.5,29.5 C 181.709,30.9217 182.209,32.255 183,33.5C 183.667,49.8333 183.667,66.1667 183,82.5C 181.488,88.5125 177.655,91.8458 171.5,92.5C 164.833,92.5 158.167,92.5 151.5,92.5C 134.341,91.5033 117.008,91.17 99.5,91.5C 99.5,97.8333 99.5,104.167 99.5,110.5C 117.008,110.83 134.341,110.497 151.5,109.5C 152.833,109.5 154.167,109.5 155.5,109.5C 162.368,111.04 166.034,115.374 166.5,122.5C 166.23,128.209 163.563,132.376 158.5,135C 138.901,136.463 119.234,136.963 99.5,136.5C 99.5,157.5 99.5,178.5 99.5,199.5C 75.8333,199.5 52.1667,199.5 28.5,199.5C 28.3333,143.832 28.5,88.1657 29,32.5C 30.5,29 33,26.5 36.5,25C 82.5,24.3333 128.5,24.3333 174.5,25C 177.202,26.0121 179.535,27.5121 181.5,29.5 Z"/></g>
<g><path style="opacity:1" fill="#f6f9f7" d="M 69.5,44.5 C 86.9553,43.4465 92.7887,51.1132 87,67.5C 81.0526,73.8476 74.2193,75.0143 66.5,71C 57.7202,60.9696 58.7202,52.1363 69.5,44.5 Z"/></g>
<g><path style="opacity:1" fill="#060606" d="M 72.5,51.5 C 79.3038,50.2214 83.3038,52.8881 84.5,59.5C 82.4883,65.8403 78.155,68.007 71.5,66C 65.9545,60.6762 66.2878,55.8429 72.5,51.5 Z"/></g>
<g><path style="opacity:1" fill="#f7feed" d="M 151.5,92.5 C 151.5,98.1667 151.5,103.833 151.5,109.5C 134.341,110.497 117.008,110.83 99.5,110.5C 99.5,104.167 99.5,97.8333 99.5,91.5C 117.008,91.17 134.341,91.5033 151.5,92.5 Z"/></g>
<g><path style="opacity:1" fill="#578a80" d="M 151.5,92.5 C 158.167,92.5 164.833,92.5 171.5,92.5C 165.355,93.4902 159.022,93.8235 152.5,93.5C 152.5,98.5 152.5,103.5 152.5,108.5C 153.791,108.263 154.791,108.596 155.5,109.5C 154.167,109.5 152.833,109.5 151.5,109.5C 151.5,103.833 151.5,98.1667 151.5,92.5 Z"/></g>
<g><path style="opacity:1" fill="#104454" d="M 181.5,29.5 C 187.338,29.4964 191.504,32.163 194,37.5C 194.667,54.5 194.667,71.5 194,88.5C 192.585,92.2509 190.085,95.0842 186.5,97C 179.842,97.4996 173.175,97.6663 166.5,97.5C 166.334,103.176 166.501,108.843 167,114.5C 171.289,115.977 174.622,118.644 177,122.5C 179.542,130.895 177.042,137.061 169.5,141C 151.836,141.5 134.17,141.667 116.5,141.5C 116.5,160.833 116.5,180.167 116.5,199.5C 110.833,199.5 105.167,199.5 99.5,199.5C 99.5,178.5 99.5,157.5 99.5,136.5C 119.234,136.963 138.901,136.463 158.5,135C 163.563,132.376 166.23,128.209 166.5,122.5C 166.034,115.374 162.368,111.04 155.5,109.5C 154.791,108.596 153.791,108.263 152.5,108.5C 152.5,103.5 152.5,98.5 152.5,93.5C 159.022,93.8235 165.355,93.4902 171.5,92.5C 177.655,91.8458 181.488,88.5125 183,82.5C 183.667,66.1667 183.667,49.8333 183,33.5C 182.209,32.255 181.709,30.9217 181.5,29.5 Z"/></g>
<g><path style="opacity:1" fill="#f5f8fb" d="M -0.5,192.5 C 1.5,195.167 3.83333,197.5 6.5,199.5C 4.16667,199.5 1.83333,199.5 -0.5,199.5C -0.5,197.167 -0.5,194.833 -0.5,192.5 Z"/></g>
<g><path style="opacity:1" fill="#eff4f9" d="M 199.5,193.5 C 199.5,195.5 199.5,197.5 199.5,199.5C 196.833,199.5 194.167,199.5 191.5,199.5C 194.886,198.472 197.552,196.472 199.5,193.5 Z"/></g>
</svg>

<svg xmlns="http://www.w3.org/2000/svg" width="200" height="200" style="shape-rendering:geometricPrecision;text-rendering:geometricPrecision;image-rendering:optimizeQuality;fill-rule:evenodd;clip-rule:evenodd"><path style="opacity:1" fill="#f3f7fa" d="M-.5-.5h8c-3.284 1.617-5.95 3.95-8 7v-7z"/><path style="opacity:1" fill="#2f7fb7" d="M7.5-.5h185a44.459 44.459 0 0 1 7 6v188c-1.948 2.972-4.614 4.972-8 6h-75v-58c17.67.167 35.336 0 53-.5 7.542-3.939 10.042-10.105 7.5-18.5-2.378-3.856-5.711-6.523-10-8a145.053 145.053 0 0 1-.5-17c6.675.166 13.342 0 20-.5 3.585-1.916 6.085-4.75 7.5-8.5.667-17 .667-34 0-51-2.496-5.337-6.662-8.004-12.5-8-1.965-1.988-4.298-3.488-7-4.5-46-.667-92-.667-138 0-3.5 1.5-6 4-7.5 7.5-.5 55.666-.667 111.332-.5 167h-22c-2.667-2-5-4.333-7-7V6.5c2.05-3.05 4.716-5.383 8-7z"/><path style="opacity:1" fill="#f2f7fa" d="M192.5-.5h7v6a44.459 44.459 0 0 0-7-6z"/><path style="opacity:1" fill="#2ed771" d="M181.5 29.5a10.136 10.136 0 0 0 1.5 4 600.2 600.2 0 0 1 0 49c-1.512 6.013-5.345 9.346-11.5 10h-20a676.57 676.57 0 0 0-52-1v19c17.508.33 34.841-.003 52-1h4c6.868 1.54 10.534 5.874 11 13-.27 5.709-2.937 9.876-8 12.5a602.33 602.33 0 0 1-59 1.5v63h-71c-.167-55.668 0-111.334.5-167 1.5-3.5 4-6 7.5-7.5 46-.667 92-.667 138 0 2.702 1.012 5.035 2.512 7 4.5z"/><path style="opacity:1" fill="#f6f9f7" d="M69.5 44.5c17.455-1.053 23.289 6.613 17.5 23-5.947 6.348-12.78 7.514-20.5 3.5-8.78-10.03-7.78-18.864 3-26.5z"/><path style="opacity:1" fill="#060606" d="M72.5 51.5c6.804-1.279 10.804 1.388 12 8-2.012 6.34-6.345 8.507-13 6.5-5.546-5.324-5.212-10.157 1-14.5z"/><path style="opacity:1" fill="#f7feed" d="M151.5 92.5v17a676.419 676.419 0 0 1-52 1v-19a676.57 676.57 0 0 1 52 1z"/><path style="opacity:1" fill="#578a80" d="M151.5 92.5h20c-6.145.99-12.478 1.323-19 1v15c1.291-.237 2.291.096 3 1h-4v-17z"/><path style="opacity:1" fill="#104454" d="M181.5 29.5c5.838-.004 10.004 2.663 12.5 8 .667 17 .667 34 0 51-1.415 3.75-3.915 6.584-7.5 8.5-6.658.5-13.325.666-20 .5-.166 5.676.001 11.343.5 17 4.289 1.477 7.622 4.144 10 8 2.542 8.395.042 14.561-7.5 18.5-17.664.5-35.33.667-53 .5v58h-17v-63a602.33 602.33 0 0 0 59-1.5c5.063-2.624 7.73-6.791 8-12.5-.466-7.126-4.132-11.46-11-13-.709-.904-1.709-1.237-3-1v-15c6.522.323 12.855-.01 19-1 6.155-.654 9.988-3.987 11.5-10a600.2 600.2 0 0 0 0-49 10.136 10.136 0 0 1-1.5-4z"/><path style="opacity:1" fill="#f5f8fb" d="M-.5 192.5c2 2.667 4.333 5 7 7h-7v-7z"/><path style="opacity:1" fill="#eff4f9" d="M199.5 193.5v6h-8c3.386-1.028 6.052-3.028 8-6z"/></svg>
